local/share/icons/dracula-icons-main/scalable/apps/psensor.svg

<?xml version="1.0" encoding="UTF-8"?>
<svg xmlns="http://www.w3.org/2000/svg" xmlns:xlink="http://www.w3.org/1999/xlink" width="64" height="64" viewBox="0 0 64 64">
<defs>
<filter id="filter-remove-color" x="0%" y="0%" width="100%" height="100%">
<feColorMatrix color-interpolation-filters="sRGB" values="0 0 0 0 1 0 0 0 0 1 0 0 0 0 1 0 0 0 1 0" />
</filter>
<mask id="mask-0">
<g filter="url(#filter-remove-color)">
<rect x="-6.4" y="-6.4" width="76.8" height="76.8" fill="rgb(0%, 0%, 0%)" fill-opacity="0.5"/>
</g>
</mask>
<clipPath id="clip-0">
<rect x="0" y="0" width="17" height="17"/>
</clipPath>
<g id="source-10084" clip-path="url(#clip-0)">
<path fill-rule="nonzero" fill="rgb(0%, 0%, 0%)" fill-opacity="1" d="M 8.46875 3.4375 C 8.117188 3.4375 7.777344 3.578125 7.53125 3.824219 C 7.28125 4.074219 7.144531 4.410156 7.144531 4.761719 L 7.144531 8.558594 C 6.328125 9.03125 5.820312 9.902344 5.820312 10.847656 C 5.820312 12.308594 7.007812 13.492188 8.46875 13.492188 C 9.925781 13.492188 11.113281 12.308594 11.113281 10.847656 C 11.113281 9.902344 10.609375 9.03125 9.789062 8.558594 L 9.789062 4.761719 C 9.789062 4.410156 9.652344 4.074219 9.402344 3.824219 C 9.15625 3.578125 8.816406 3.4375 8.46875 3.4375 Z M 8.46875 4.234375 C 8.773438 4.234375 8.996094 4.453125 8.996094 4.761719 L 8.996094 9.015625 L 9.394531 9.246094 C 9.964844 9.578125 10.316406 10.1875 10.320312 10.847656 C 10.320312 11.339844 10.128906 11.8125 9.78125 12.160156 C 9.433594 12.507812 8.960938 12.703125 8.46875 12.699219 C 7.976562 12.703125 7.503906 12.507812 7.152344 12.160156 C 6.804688 11.8125 6.613281 11.339844 6.613281 10.847656 C 6.613281 10.1875 6.96875 9.578125 7.539062 9.246094 L 7.9375 9.019531 L 7.9375 4.761719 C 7.9375 4.453125 8.160156 4.234375 8.46875 4.234375 Z M 8.46875 4.234375 "/>
</g>
<mask id="mask-1">
<g filter="url(#filter-remove-color)">
<rect x="-6.4" y="-6.4" width="76.8" height="76.8" fill="rgb(0%, 0%, 0%)" fill-opacity="0.5"/>
</g>
</mask>
<clipPath id="clip-1">
<rect x="0" y="0" width="17" height="17"/>
</clipPath>
<g id="source-10089" clip-path="url(#clip-1)">
<path fill-rule="nonzero" fill="rgb(0%, 0%, 0%)" fill-opacity="1" d="M 11.378906 3.96875 L 13.492188 3.96875 L 13.492188 4.496094 L 11.378906 4.496094 Z M 11.378906 5.027344 L 13.492188 5.027344 L 13.492188 5.554688 L 11.378906 5.554688 Z M 11.378906 6.085938 L 13.492188 6.085938 L 13.492188 6.613281 L 11.378906 6.613281 Z M 11.378906 7.144531 L 13.492188 7.144531 L 13.492188 7.671875 L 11.378906 7.671875 Z M 11.378906 8.203125 L 13.492188 8.203125 L 13.492188 8.730469 L 11.378906 8.730469 Z M 11.378906 8.203125 "/>
</g>
<mask id="mask-2">
<g filter="url(#filter-remove-color)">
<rect x="-6.4" y="-6.4" width="76.8" height="76.8" fill="rgb(0%, 0%, 0%)" fill-opacity="0.5"/>
</g>
</mask>
<clipPath id="clip-2">
<rect x="0" y="0" width="17" height="17"/>
</clipPath>
<g id="source-10093" clip-path="url(#clip-2)">
<path fill-rule="nonzero" fill="rgb(0%, 0%, 0%)" fill-opacity="1" d="M 5.027344 4.5 C 5.027344 4.789062 4.789062 5.027344 4.5 5.027344 C 4.207031 5.027344 3.96875 4.789062 3.96875 4.5 C 3.96875 4.207031 4.207031 3.96875 4.5 3.96875 C 4.789062 3.96875 5.027344 4.207031 5.027344 4.5 Z M 5.027344 4.5 "/>
</g>
</defs>
<path fill-rule="nonzero" fill="rgb(70.196078%, 70.196078%, 70.196078%)" fill-opacity="1" d="M 15.609375 8.464844 C 15.609375 12.410156 12.410156 15.609375 8.464844 15.609375 C 4.519531 15.609375 1.324219 12.410156 1.324219 8.464844 C 1.324219 4.519531 4.519531 1.324219 8.464844 1.324219 C 12.410156 1.324219 15.609375 4.519531 15.609375 8.464844 Z M 15.609375 8.464844 "/>
<g mask="url(#mask-0)">
<use xlink:href="#source-10084"/>
</g>
<path fill-rule="nonzero" fill="rgb(100%, 33.333333%, 33.333333%)" fill-opacity="1" d="M 7.9375 6.613281 L 7.9375 9.019531 L 7.539062 9.246094 C 6.96875 9.578125 6.617188 10.1875 6.613281 10.847656 C 6.613281 11.339844 6.804688 11.8125 7.152344 12.160156 C 7.5 12.507812 7.976562 12.703125 8.46875 12.699219 C 8.960938 12.703125 9.433594 12.507812 9.78125 12.160156 C 10.128906 11.8125 10.320312 11.339844 10.320312 10.847656 C 10.320312 10.1875 9.964844 9.578125 9.394531 9.246094 L 8.996094 9.015625 L 8.996094 6.613281 Z M 7.9375 6.613281 "/>
<g mask="url(#mask-1)">
<use xlink:href="#source-10089"/>
</g>
<g mask="url(#mask-2)">
<use xlink:href="#source-10093"/>
</g>
<path fill-rule="nonzero" fill="rgb(100%, 33.333333%, 33.333333%)" fill-opacity="1" d="M 4.761719 4.5 C 4.761719 4.644531 4.644531 4.761719 4.5 4.761719 C 4.351562 4.761719 4.234375 4.644531 4.234375 4.5 C 4.234375 4.351562 4.351562 4.234375 4.5 4.234375 C 4.644531 4.234375 4.761719 4.351562 4.761719 4.5 Z M 4.761719 4.5 "/>
</svg>

<svg width="64" height="64" version="1.1" viewBox="0 0 16.933 16.933" xmlns="http://www.w3.org/2000/svg" xmlns:xlink="http://www.w3.org/1999/xlink">
 <circle cx="8.4665" cy="8.4665" r="7.1436" fill="#b3b3b3" style="paint-order:stroke fill markers"/>
 <path d="m8.467 3.439a1.32 1.32 0 0 0-1.323 1.323v3.798a2.646 2.646 0 0 0-1.323 2.288 2.646 2.646 0 0 0 2.646 2.645 2.646 2.646 0 0 0 2.645-2.645 2.646 2.646 0 0 0-1.322-2.29v-3.796a1.32 1.32 0 0 0-1.323-1.323zm0 0.794c0.307 0 0.529 0.222 0.529 0.53v4.254l0.397 0.23c0.573 0.33 0.925 0.939 0.926 1.601a1.84 1.84 0 0 1-1.852 1.852 1.84 1.84 0 0 1-1.852-1.851c0-0.663 0.353-1.27 0.926-1.601l0.396-0.23v-4.256c0-0.307 0.223-0.529 0.53-0.529z" opacity=".5"/>
 <path d="m7.937 6.614v2.405l-0.396 0.229c-0.573 0.33-0.925 0.938-0.926 1.6a1.84 1.84 0 0 0 1.852 1.852 1.84 1.84 0 0 0 1.852-1.852 1.85 1.85 0 0 0-0.926-1.602l-0.397-0.229v-2.403z" fill="#f55"/>
 <path d="m11.377 3.968h2.117v0.529h-2.117zm0 1.059h2.117v0.529h-2.117zm0 1.058h2.117v0.529h-2.117zm0 1.058h2.117v0.529h-2.117zm0 1.059h2.117v0.529h-2.117z" opacity=".5" style="paint-order:stroke fill markers"/>
 <circle cx="4.4982" cy="4.4982" r=".529" opacity=".5" style="paint-order:stroke fill markers"/>
 <circle cx="4.4982" cy="4.4982" r=".265" fill="#f55" style="paint-order:stroke fill markers"/>
</svg>
